src/assets/svg/icons/fa/nuevos/classic/thin/buildings classic thin.svg

<svg xmlns="http://www.w3.org/2000/svg" viewBox="0 0 512 512"><!--! Font Awesome Pro 6.4.0 by @fontawesome - https://fontawesome.com License - https://fontawesome.com/license (Commercial License) Copyright 2023 Fonticons, Inc. --><path d="M256 16c-26.5 0-48 21.5-48 48V448c0 26.5 21.5 48 48 48H448c26.5 0 48-21.5 48-48V64c0-26.5-21.5-48-48-48H256zM192 64c0-35.3 28.7-64 64-64H448c35.3 0 64 28.7 64 64V448c0 35.3-28.7 64-64 64H256c-35.3 0-64-28.7-64-64V64zM56 128H160v16H56c-22.1 0-40 17.9-40 40V456c0 22.1 17.9 40 40 40H172.8c3.3 5.7 7.2 11.1 11.6 16H56c-30.9 0-56-25.1-56-56V184c0-30.9 25.1-56 56-56zm8 216c0-13.3 10.7-24 24-24h32c13.3 0 24 10.7 24 24v32c0 13.3-10.7 24-24 24H88c-13.3 0-24-10.7-24-24V344zm24-8c-4.4 0-8 3.6-8 8v32c0 4.4 3.6 8 8 8h32c4.4 0 8-3.6 8-8V344c0-4.4-3.6-8-8-8H88zm0-144h32c13.3 0 24 10.7 24 24v32c0 13.3-10.7 24-24 24H88c-13.3 0-24-10.7-24-24V216c0-13.3 10.7-24 24-24zm-8 24v32c0 4.4 3.6 8 8 8h32c4.4 0 8-3.6 8-8V216c0-4.4-3.6-8-8-8H88c-4.4 0-8 3.6-8 8zM368 376V344c0-13.3 10.7-24 24-24h32c13.3 0 24 10.7 24 24v32c0 13.3-10.7 24-24 24H392c-13.3 0-24-10.7-24-24zm24 8h32c4.4 0 8-3.6 8-8V344c0-4.4-3.6-8-8-8H392c-4.4 0-8 3.6-8 8v32c0 4.4 3.6 8 8 8zm0-112c-13.3 0-24-10.7-24-24V216c0-13.3 10.7-24 24-24h32c13.3 0 24 10.7 24 24v32c0 13.3-10.7 24-24 24H392zm-8-24c0 4.4 3.6 8 8 8h32c4.4 0 8-3.6 8-8V216c0-4.4-3.6-8-8-8H392c-4.4 0-8 3.6-8 8v32zM256 376V344c0-13.3 10.7-24 24-24h32c13.3 0 24 10.7 24 24v32c0 13.3-10.7 24-24 24H280c-13.3 0-24-10.7-24-24zm24 8h32c4.4 0 8-3.6 8-8V344c0-4.4-3.6-8-8-8H280c-4.4 0-8 3.6-8 8v32c0 4.4 3.6 8 8 8zm0-312h32c13.3 0 24 10.7 24 24v32c0 13.3-10.7 24-24 24H280c-13.3 0-24-10.7-24-24V96c0-13.3 10.7-24 24-24zm-8 24v32c0 4.4 3.6 8 8 8h32c4.4 0 8-3.6 8-8V96c0-4.4-3.6-8-8-8H280c-4.4 0-8 3.6-8 8zM256 248V216c0-13.3 10.7-24 24-24h32c13.3 0 24 10.7 24 24v32c0 13.3-10.7 24-24 24H280c-13.3 0-24-10.7-24-24zm24 8h32c4.4 0 8-3.6 8-8V216c0-4.4-3.6-8-8-8H280c-4.4 0-8 3.6-8 8v32c0 4.4 3.6 8 8 8zM392 72h32c13.3 0 24 10.7 24 24v32c0 13.3-10.7 24-24 24H392c-13.3 0-24-10.7-24-24V96c0-13.3 10.7-24 24-24zm-8 24v32c0 4.4 3.6 8 8 8h32c4.4 0 8-3.6 8-8V96c0-4.4-3.6-8-8-8H392c-4.4 0-8 3.6-8 8z"/></svg>

<svg xmlns="http://www.w3.org/2000/svg" viewBox="0 0 512 512"><path d="M368 344C368 330.7 378.7 320 392 320H424C437.3 320 448 330.7 448 344V376C448 389.3 437.3 400 424 400H392C378.7 400 368 389.3 368 376V344zM424 384C428.4 384 432 380.4 432 376V344C432 339.6 428.4 336 424 336H392C387.6 336 384 339.6 384 344V376C384 380.4 387.6 384 392 384H424zM392 272C378.7 272 368 261.3 368 248V216C368 202.7 378.7 192 392 192H424C437.3 192 448 202.7 448 216V248C448 261.3 437.3 272 424 272H392zM384 248C384 252.4 387.6 256 392 256H424C428.4 256 432 252.4 432 248V216C432 211.6 428.4 208 424 208H392C387.6 208 384 211.6 384 216V248zM256 344C256 330.7 266.7 320 280 320H312C325.3 320 336 330.7 336 344V376C336 389.3 325.3 400 312 400H280C266.7 400 256 389.3 256 376V344zM312 384C316.4 384 320 380.4 320 376V344C320 339.6 316.4 336 312 336H280C275.6 336 272 339.6 272 344V376C272 380.4 275.6 384 280 384H312zM312 72C325.3 72 336 82.75 336 96V128C336 141.3 325.3 152 312 152H280C266.7 152 256 141.3 256 128V96C256 82.75 266.7 72 280 72H312zM272 128C272 132.4 275.6 136 280 136H312C316.4 136 320 132.4 320 128V96C320 91.58 316.4 88 312 88H280C275.6 88 272 91.58 272 96V128zM256 216C256 202.7 266.7 192 280 192H312C325.3 192 336 202.7 336 216V248C336 261.3 325.3 272 312 272H280C266.7 272 256 261.3 256 248V216zM312 256C316.4 256 320 252.4 320 248V216C320 211.6 316.4 208 312 208H280C275.6 208 272 211.6 272 216V248C272 252.4 275.6 256 280 256H312zM424 72C437.3 72 448 82.75 448 96V128C448 141.3 437.3 152 424 152H392C378.7 152 368 141.3 368 128V96C368 82.75 378.7 72 392 72H424zM384 128C384 132.4 387.6 136 392 136H424C428.4 136 432 132.4 432 128V96C432 91.58 428.4 88 424 88H392C387.6 88 384 91.58 384 96V128zM192 64C192 28.65 220.7 0 256 0H448C483.3 0 512 28.65 512 64V448C512 483.3 483.3 512 448 512H256C220.7 512 192 483.3 192 448V64zM208 64V448C208 474.5 229.5 496 256 496H448C474.5 496 496 474.5 496 448V64C496 37.49 474.5 16 448 16H256C229.5 16 208 37.49 208 64zM160 128C164.4 128 168 131.6 168 136C168 140.4 164.4 144 160 144H56C33.91 144 16 161.9 16 184V456C16 478.1 33.91 496 56 496H176C180.4 496 184 499.6 184 504C184 508.4 180.4 512 176 512H56C25.07 512 0 486.9 0 456V184C0 153.1 25.07 128 56 128H160zM64 344C64 330.7 74.75 320 88 320H120C133.3 320 144 330.7 144 344V376C144 389.3 133.3 400 120 400H88C74.75 400 64 389.3 64 376V344zM88 336C83.58 336 80 339.6 80 344V376C80 380.4 83.58 384 88 384H120C124.4 384 128 380.4 128 376V344C128 339.6 124.4 336 120 336H88zM120 192C133.3 192 144 202.7 144 216V248C144 261.3 133.3 272 120 272H88C74.75 272 64 261.3 64 248V216C64 202.7 74.75 192 88 192H120zM80 248C80 252.4 83.58 256 88 256H120C124.4 256 128 252.4 128 248V216C128 211.6 124.4 208 120 208H88C83.58 208 80 211.6 80 216V248z"/></svg>
